images/form-icons.svg

<svg aria-hidden="true" style="position: absolute; width: 0; height: 0; overflow: hidden;" version="1.1" xmlns="http://www.w3.org/2000/svg" xmlns:xlink="http://www.w3.org/1999/xlink">
  <defs>
    <symbol id="icon-close-button" viewBox="0 0 32 32">
      <path d="M32 3.223l-3.223-3.223-12.777 12.777-12.777-12.777-3.223 3.223 12.777 12.777-12.777 12.777 3.223 3.223 12.777-12.777 12.777 12.777 3.223-3.223-12.777-12.777 12.777-12.777z"></path>
    </symbol>
    <symbol id="icon-email" viewBox="0 0 24 32">
      <path d="M20 8h-16c-1.1 0-1.99 0.9-1.99 2l-0.010 12c0 1.1 0.9 2 2 2h16c1.1 0 2-0.9 2-2v-12c0-1.1-0.9-2-2-2zM19.6 12.25l-7.070 4.42c-0.32 0.2-0.74 0.2-1.060 0l-7.070-4.42c-0.25-0.16-0.4-0.43-0.4-0.72 0-0.67 0.73-1.070 1.3-0.72l6.7 4.19 6.7-4.19c0.57-0.35 1.3 0.050 1.3 0.72 0 0.29-0.15 0.56-0.4 0.72z"></path>
    </symbol>
    <symbol id="icon-person" viewBox="0 0 32 32">
      <path d="M16 16c2.947 0 5.333-2.387 5.333-5.333s-2.387-5.333-5.333-5.333c-2.947 0-5.333 2.387-5.333 5.333s2.387 5.333 5.333 5.333zM16 18.667c-3.56 0-10.667 1.787-10.667 5.333v1.333c0 0.733 0.6 1.333 1.333 1.333h18.667c0.733 0 1.333-0.6 1.333-1.333v-1.333c0-3.547-7.107-5.333-10.667-5.333z"></path>
    </symbol>
    <symbol id="icon-phone" viewBox="0 0 24 32">
      <path d="M19.635 18.487l-2.451-0.28c-0.589-0.067-1.167 0.135-1.582 0.55l-1.775 1.775c-2.731-1.389-4.969-3.618-6.359-6.359l1.785-1.785c0.415-0.415 0.618-0.994 0.55-1.582l-0.28-2.432c-0.116-0.975-0.936-1.708-1.92-1.708h-1.669c-1.090 0-1.997 0.907-1.93 1.997 0.511 8.24 7.102 14.821 15.332 15.332 1.090 0.068 1.997-0.839 1.997-1.93v-1.669c0.010-0.975-0.724-1.795-1.698-1.911z"></path>
    </symbol>
    <symbol id="icon-vector" viewBox="0 0 40 32">
      <path d="M33.782 1.020c0.691-0.662 1.611-1.027 2.565-1.020s1.869 0.387 2.55 1.059c0.681 0.672 1.076 1.584 1.101 2.543s-0.321 1.891-0.966 2.598l-19.578 24.617c-0.337 0.365-0.743 0.657-1.195 0.86s-0.939 0.312-1.434 0.322c-0.495 0.009-0.986-0.082-1.445-0.268s-0.876-0.463-1.226-0.815l-12.984-13.054c-0.362-0.339-0.652-0.747-0.853-1.201s-0.309-0.944-0.318-1.441 0.082-0.99 0.267-1.451c0.185-0.461 0.461-0.879 0.81-1.231s0.766-0.628 1.224-0.814 0.949-0.277 1.443-0.269c0.494 0.009 0.981 0.118 1.433 0.32s0.858 0.494 1.195 0.857l10.275 10.325 17.042-21.83c0.031-0.038 0.063-0.074 0.098-0.109h-0.005z"></path>
    </symbol>
  </defs>
</svg>

<svg xmlns="http://www.w3.org/2000/svg" aria-hidden="true" style="position:absolute;width:0;height:0;overflow:hidden">
  <defs>
    <symbol id="icon-close-button" viewBox="0 0 32 32">
      <path d="M32 3.223 28.777 0 16 12.777 3.223 0 0 3.223 12.777 16 0 28.777 3.223 32 16 19.223 28.777 32 32 28.777 19.223 16 32 3.223z"/>
    </symbol>
    <symbol id="icon-email" viewBox="0 0 24 32">
      <path d="M20 8H4c-1.1 0-1.99.9-1.99 2L2 22c0 1.1.9 2 2 2h16c1.1 0 2-.9 2-2V10c0-1.1-.9-2-2-2zm-.4 4.25-7.07 4.42c-.32.2-.74.2-1.06 0L4.4 12.25a.85.85 0 1 1 .9-1.44L12 15l6.7-4.19a.85.85 0 1 1 .9 1.44z"/>
    </symbol>
    <symbol id="icon-person" viewBox="0 0 32 32">
      <path d="M16 16c2.947 0 5.333-2.387 5.333-5.333S18.946 5.334 16 5.334c-2.947 0-5.333 2.387-5.333 5.333S13.054 16 16 16zm0 2.667c-3.56 0-10.667 1.787-10.667 5.333v1.333c0 .733.6 1.333 1.333 1.333h18.667c.733 0 1.333-.6 1.333-1.333V24c0-3.547-7.107-5.333-10.667-5.333z"/>
    </symbol>
    <symbol id="icon-phone" viewBox="0 0 24 32">
      <path d="m19.635 18.487-2.451-.28a1.92 1.92 0 0 0-1.582.55l-1.775 1.775a14.514 14.514 0 0 1-6.359-6.359l1.785-1.785c.415-.415.618-.994.55-1.582l-.28-2.432a1.931 1.931 0 0 0-1.92-1.708H5.934c-1.09 0-1.997.907-1.93 1.997.511 8.24 7.102 14.821 15.332 15.332 1.09.068 1.997-.839 1.997-1.93v-1.669a1.913 1.913 0 0 0-1.698-1.911z"/>
    </symbol>
    <symbol id="icon-vector" viewBox="0 0 40 32">
      <path d="M33.782 1.02a3.668 3.668 0 0 1 5.115.039 3.712 3.712 0 0 1 .135 5.141L19.454 30.817a3.674 3.674 0 0 1-4.074.914 3.675 3.675 0 0 1-1.226-.815L1.17 17.862A3.693 3.693 0 0 1-.001 15.22a3.714 3.714 0 0 1 1.077-2.682 3.664 3.664 0 0 1 4.1-.763 3.68 3.68 0 0 1 1.195.857l10.275 10.325 17.042-21.83c.031-.038.063-.074.098-.109h-.005z"/>
    </symbol>
  </defs>
</svg>
